hornpipes/bobbycaseys.htmlhornpipes/bobbycaseys.htmlhornpipes/bobbycaseys.htmlhornpipes/bobbycaseys.htmlhornpipes/bobbycaseys.htmlhornpipes/bobbycaseys.htmlhornpipes/bobbycaseys.htmlhornpipes/bobbycaseys.htmlhornpipes/bobbycaseys.htmlFrom <I>Paul O'Shaughnessy: Stay Another While</I>
hornpipes/bobbycaseys.htmlhornpipes/bobbycaseys.html<PRE>T:Dusty Miller, The
T:Dusty Miller, The
M:9/8
L:1/8
R:slip jig
D:Paul O'Shaughnessy: Stay Another While
Z:Devin McCabe
K:DMix
A/2B/2A A2G A2D|A/2B/2A A2G B2d|A/2B/2A A2G A2c|B2G G2A B2d:|
!|:A2D D/2D/2D A2D|A2D  D/2D/2D B2d|A2D  D/2D/2D A2c|B2G G2A B2d:|

%  ABC2Win Version 2.1 7/27/2000
hornpipes/bobbycaseys.htmlhornpipes/bobbycaseys.htmlhornpipes/bobbycaseys.htmlhornpipes/bobbycaseys.htmlhornpipes/bobbycaseys.htmlhornpipes/bobbycaseys.htmlhornpipes/bobbycaseys.html